X: 12528
T: Farewell To Ireland
R: reel
M: 4/4
K: Adorian
|:~A3c ~e3f|gedB GBdB|~A3c ~e3f|gedB ~A3G|
~A3c ~e3f|gedB d~G3|edeg ~a3a|gedB BAA2:|
|:e~a3 agef|~g3a gede|e~a3 agef|gedB BAA2|
agef g3e|d3B GABd|(3cBA ed Bdef|gedB BAA2:|
|:eABA eABA|dGAG GABd|eABA ~e3f|gedB BAA2|
eABA eABA|~d3B GABd|B~A3 Bdef|gedB BAA2:|
|:aece ~a3f|gdBd edBd|aece ~a3f|gedB BAA2|
agef g3e|dedB GABd|B~A3 Bdef|gedB BAA2:|

